file/3m.svg

<svg clip-rule="evenodd" fill-rule="evenodd" stroke-linejoin="round" stroke-miterlimit="1.41421" viewBox="0 0 560 400" xmlns="http://www.w3.org/2000/svg"><path d="m0 0-2.83-11.512-2.838 11.512h-8.197v-4.251c-.996 3.72-4.65 4.653-7.915 4.706-3.981.052-8.392-1.673-8.545-6.937h5.506c0 1.589 1.455 2.499 2.829 2.476 1.687.014 2.463-.706 2.502-1.827-.058-.973-.632-1.65-2.488-1.65h-1.852v-3.82h1.681c.955 0 2.284-.52 2.336-1.88.064-1.621-1.063-2.333-2.45-2.347-2.476.092-3.115 1.994-3.115 3.63h-5.715c.024-1.102-.012-8.285 8.945-8.232 4.291-.039 7.414 1.765 8.295 4.252v-3.812h5.512v12.42l3.048-12.42h4.925l3.059 12.406v-12.417h5.624v19.703zm-13.847-11.485c-.702 1.452-1.69 2.087-2.246 2.288 1.167.519 1.778 1.223 2.246 2.626z" fill="#ee1b2d" fill-rule="nonzero" transform="matrix(9.1352 0 0 -9.1352 384.023 110.126)"/></svg>

<?xml version="1.0" encoding="UTF-8" standalone="no"?>
<!DOCTYPE svg PUBLIC "-//W3C//DTD SVG 1.1//EN" "http://www.w3.org/Graphics/SVG/1.1/DTD/svg11.dtd">
<svg width="100%" height="100%" viewBox="0 0 560 400" version="1.1" xmlns="http://www.w3.org/2000/svg" xmlns:xlink="http://www.w3.org/1999/xlink" xml:space="preserve" xmlns:serif="http://www.serif.com/" style="fill-rule:evenodd;clip-rule:evenodd;stroke-linejoin:round;stroke-miterlimit:1.41421;">
    <g id="path3356" transform="matrix(9.1352,0,0,-9.1352,384.023,110.126)">
        <path d="M0,0L-2.83,-11.512L-5.668,0L-13.865,0L-13.865,-4.251C-14.861,-0.531 -18.515,0.402 -21.78,0.455C-25.761,0.507 -30.172,-1.218 -30.325,-6.482L-24.819,-6.482C-24.819,-4.893 -23.364,-3.983 -21.99,-4.006C-20.303,-3.992 -19.527,-4.712 -19.488,-5.833C-19.546,-6.806 -20.12,-7.483 -21.976,-7.483L-23.828,-7.483L-23.828,-11.303L-22.147,-11.303C-21.192,-11.303 -19.863,-11.823 -19.811,-13.183C-19.747,-14.804 -20.874,-15.516 -22.261,-15.53C-24.737,-15.438 -25.376,-13.536 -25.376,-11.9L-31.091,-11.9C-31.067,-13.002 -31.103,-20.185 -22.146,-20.132C-17.855,-20.171 -14.732,-18.367 -13.851,-15.88L-13.851,-19.692L-8.339,-19.692L-8.339,-7.272L-5.291,-19.692L-0.366,-19.692L2.693,-7.286L2.693,-19.703L8.317,-19.703L8.317,0L0,0ZM-13.847,-11.485C-14.549,-10.033 -15.537,-9.398 -16.093,-9.197C-14.926,-8.678 -14.315,-7.974 -13.847,-6.571L-13.847,-11.485Z" style="fill:rgb(238,27,45);fill-rule:nonzero;"/>
    </g>
</svg>
